!!!!SEGMENT: pl-wtm--r-995--001-004_krogulski-jozef-wladyslaw--msza-pasterska-credo.krn
!!!cenid: 18xx:2086
!!!COM: Krogulski, Józef Władysław
!!!COM-rismID: pe30001797
!!!CDT: 1815/10/04-1842/01/09
!!!CNT: Polish
!!!OPR: Msza pasterska
!!!OTL: Credo
!!!OMV: 004
!!!PDT:
!!!AGN: Sacred; Mass
!!!YEC: Copyright 2022 Narodowy Instytut Fryderyka Chopina (https://polishscores.org)
!!!YEM: License CC-BY-4.0 (https://creativecommons.org/licenses/by/4.0)
!!!SMS-siglum: PL-Wtm
!!!SMS-shelfmark: R 995
!!!SMS-shelfwork: 001-004 M
!!!SMS-variant:
!!!SMS-altvar:
!!!NIFC-rismSourceID: 1001083272
!!!NIFC-rismChildID: 1001083272
!!!NIFC-islandoraID:
!!!URL-pdf-islandora:
!!!URL-scan:
!!!IIIF:
!!!ONB-nifc: UWAGA: części Mszy: 1. Kyrie, 2. Gloria, 3. Graduale, 4. Credo, 5. Offertorium, 6. Sanctus, 7. Benedictus, 8. Agnus Dei, 9. Dona nobis
!!!OMD: Allº moderato.
!!!AIN: 1 empty 1 organ 2 soprn 1 tenor
!!!key:
**kern	**kern	**dynam	**kern	**dynam	**text	**mod-text	**kern	**dynam	**text	**mod-text	**kern	**dynam	**text	**mod-text	**kern	**dynam	**text	**mod-text
*part5	*part5	*	*part4	*	*	*	*part3	*	*	*	*part2	*	*	*	*part1	*	*	*
*staff6	*staff5	*	*staff4	*	*	*	*staff3	*	*	*	*staff2	*	*	*	*staff1	*	*	*
*Iorgan	*Iorgan	*	*Iempty	*	*	*	*Itenor	*	*	*	*Isoprn	*	*	*	*Isoprn	*	*	*
*I"Organ	*I"Organ	*	*I"Baſso	*	*	*	*I"Tenore	*	*	*	*I"[Sopra] 2	*	*	*	*I"Sopra 1.	*	*	*
*mI"Organo	*mI"Organo	*	*mI"Basso	*	*	*	*mI"Tenore	*	*	*	*mI"Soprano 2	*	*	*	*mI"Soprano 1	*	*	*
*I'org	*I'org	*	*I'B	*	*	*	*I'T	*	*	*	*I'S 2	*	*	*	*I'S	*	*	*
*mI'org	*mI'org	*	*mI'B	*	*	*	*mI'T	*	*	*	*mI'S 2	*	*	*	*mI'S 1	*	*	*
*clefF4	*clefG2	*	*clefF4	*	*	*	*clefG2	*	*	*	*clefG2	*	*	*	*clefG2	*	*	*
*	*	*	*	*	*	*	*ITrd7c12	*	*	*	*	*	*	*	*	*	*	*
*k[f#]	*k[f#]	*	*k[f#]	*	*	*	*k[f#]	*	*	*	*k[f#]	*	*	*	*k[f#]	*	*	*
*G:	*G:	*	*G:	*	*	*	*G:	*	*	*	*G:	*	*	*	*G:	*	*	*
*M3/4	*M3/4	*	*M3/4	*	*	*	*M3/4	*	*	*	*M3/4	*	*	*	*M3/4	*	*	*
=1	=1	=1	=1	=1	=1	=1	=1	=1	=1	=1	=1	=1	=1	=1	=1	=1	=1	=1
!!!OMD-mod: Allegro moderato
*all\right	*all\right	*	*all\right	*	*	*	*all\right	*	*	*	*all\right	*	*	*	*all\right	*	*	*
!	!	!LO:DY:b:rj	!	!LO:DY:b:rj	!	!	!	!LO:DY:b:rj	!	!	!	!LO:DY:b:rj	!	!	!	!LO:DY:b:rj	!	!
4B 4G\	4d/	f	4G\	f	.	Cre-	4B\	f	.	Cre-	4d/	f	.	Cre-	4d/	f	Cre-	Cre-
4B 4G\	4g 4d/	.	4G\	.	.	-do	4B\	.	.	-do	4d/	.	.	-do	4g/	.	-do	-do
4B 4G\	4b 4d/	.	4G\	.	.	in	4B\	.	.	in	4d/	.	.	in	4b/	.	in	in
=2	=2	=2	=2	=2	=2	=2	=2	=2	=2	=2	=2	=2	=2	=2	=2	=2	=2	=2
*2\right	*	*	*2\right	*	*	*	*2\right	*	*	*	*	*	*	*	*2\right	*	*	*
2.B 2.G\	2.dd 2.d/	.	2G\	.	.	u-	2B\	.	.	u-	2d/	.	.	u-	2dd\	.	u-	u-
.	.	.	4G\	.	.	-num	4B\	.	.	-num	4d/	.	.	-num	4dd\	.	-num	-num
=3	=3	=3	=3	=3	=3	=3	=3	=3	=3	=3	=3	=3	=3	=3	=3	=3	=3	=3
*	*^	*	*	*	*	*	*	*	*	*	*	*	*	*	*	*	*	*
*2\left	*	*2\right	*	*	*	*	*	*	*	*	*	*	*	*	*	*	*	*	*
2.A#X 2.G\	4dd/	2.e\	.	2.G\	.	.	De-	2.A#X/	.	.	De-	2.e/	.	.	De-	(4dd\	.	De-	De-
.	4cc#X/	.	.	.	.	.	.	.	.	.	.	.	.	.	.	4cc#X\	.	.	.
.	4ee/	.	.	.	.	.	.	.	.	.	.	.	.	.	.	4ee\)	.	.	.
*	*v	*v	*	*	*	*	*	*	*	*	*	*	*	*	*	*	*	*	*
=4	=4	=4	=4	=4	=4	=4	=4	=4	=4	=4	=4	=4	=4	=4	=4	=4	=4	=4
4B 4G\	4dd 4g\	.	4G\	.	.	-um,	4B\	.	.	-um,	4g/	.	.	-um,	4dd\	.	-um	-um,
4r	4r	.	4r	.	.	.	4r	.	.	.	4r	.	.	.	4r	.	.	.
4r	4r	.	4r	.	.	.	4r	.	.	.	4r	.	.	.	4r	.	.	.
=5	=5	=5	=5	=5	=5	=5	=5	=5	=5	=5	=5	=5	=5	=5	=5	=5	=5	=5
*^	*^	*	*	*	*	*	*	*	*	*	*	*	*	*	*	*	*	*
*	*2\right	*	*	*	*	*	*	*	*	*	*	*	*	*	*	*	*	*	*	*
!	!	!	!	!	!	!	!	!	!LO:SIC:o=(2d\:v	!	!	!	!LO:SIC:o=(2f#/:v	!	!	!	!	!	!	!
2d/	2.D\	4an/	2.f#\	.	2D\	.	.	Pa-	[2d\	.	.	Pa-	2f#/	.	.	Pa-	(4a/	.	Pa-	Pa-
.	.	4cc/	.	.	.	.	.	.	.	.	.	.	.	.	.	.	4ccn/)	.	.	.
!	!	!	!	!	!	!	!	!	!LO:SIC:o=8d\L:v	!	!	!	!LO:SIC:o=4f#/):v	!	!	!	!LO:SIC:o=8b/L:v	!	!	!
8d/L	.	8b/L	.	.	4D\	.	.	-trem	8d\L]	.	.	.	4f#/	.	.	-trem	(8b/L	.	-trem	-trem
!	!	!	!	!	!	!	!	!	!LO:SIC:o=8c\J):v	!	!	!	!	!	!	!	!LO:SIC:o=8a/J:v	!	!	!
8c/J	.	8a/J	.	.	.	.	.	.	8c\J	.	.	-trem	.	.	.	.	8a/J)	.	.	.
*v	*v	*	*	*	*	*	*	*	*	*	*	*	*	*	*	*	*	*	*	*
*	*v	*v	*	*	*	*	*	*	*	*	*	*	*	*	*	*	*	*	*
=6	=6	=6	=6	=6	=6	=6	=6	=6	=6	=6	=6	=6	=6	=6	=6	=6	=6	=6
4B 4G\	4dd 4g\	.	4G\	.	.	om-	4B\	.	.	om-	4g/	.	.	om-	4dd\	.	om-	om-
4d 4G\	4b 4g\	.	4G\	.	.	-ni-	4d\	.	.	-ni-	4g/	.	.	-ni-	4b\	.	-ni-	-ni-
4B 4G\	4g\	.	4G\	.	.	-po-	4B\	.	.	-po-	4g/	.	.	-po-	4g\	.	-po-	-po-
=7	=7	=7	=7	=7	=7	=7	=7	=7	=7	=7	=7	=7	=7	=7	=7	=7	=7	=7
*^	*^	*	*	*	*	*	*	*	*	*	*	*	*	*	*	*	*	*
2c/	2C\	2ee/	2g\	.	(2C/	.	.	-ten-	(2c\	.	.	-ten-	(2g/	.	.	-ten-	(2ee\	.	-ten-	-ten-
4A/	4D\	8dd/L	4f#\	.	4D/)	.	.	.	4A\)	.	.	.	4f#/)	.	.	.	8dd\L	.	.	.
.	.	8cc/J	.	.	.	.	.	.	.	.	.	.	.	.	.	.	8cc\J)	.	.	.
*v	*v	*	*	*	*	*	*	*	*	*	*	*	*	*	*	*	*	*	*	*
*	*v	*v	*	*	*	*	*	*	*	*	*	*	*	*	*	*	*	*	*
=8	=8	=8	=8	=8	=8	=8	=8	=8	=8	=8	=8	=8	=8	=8	=8	=8	=8	=8
2B 2G\	2b 2g/	.	2G\	.	.	-tem.	2B\	.	.	-tem.	2g/	.	.	-tem.	2b\	.	-tem	-tem.
4r	4r	.	4r	.	.	.	4r	.	.	.	4r	.	.	.	4r	.	.	.
=9	=9	=9	=9	=9	=9	=9	=9	=9	=9	=9	=9	=9	=9	=9	=9	=9	=9	=9
4B 4G\	4d/	.	4G\	.	.	Cre-	4B\	.	.	Cre-	4d/	.	.	Cre-	4d/	.	Cre-	Cre-
4B 4G\	4g 4d/	.	4G\	.	.	-do	4B\	.	.	-do	4d/	.	.	-do	4g/	.	-do	-do
4B 4G\	4b 4d/	.	4G\	.	.	in	4B\	.	.	in	4d/	.	.	in	4b/	.	in	in
!!LO:LB:g=original
=10	=10	=10	=10	=10	=10	=10	=10	=10	=10	=10	=10	=10	=10	=10	=10	=10	=10	=10
2.B 2.G\	[2.dd 2.d/	.	2G\	.	.	u-	2B\	.	.	u-	2d/	.	.	u-	2dd\	.	u-	u-
.	.	.	4G\	.	.	-num	4B\	.	.	-num	4d/	.	.	-num	4dd\	.	-num	-num
=11	=11	=11	=11	=11	=11	=11	=11	=11	=11	=11	=11	=11	=11	=11	=11	=11	=11	=11
*	*^	*	*	*	*	*	*	*	*	*	*	*	*	*	*	*	*	*
*2\left	*	*	*	*	*	*	*	*	*	*	*	*	*	*	*	*	*	*	*
2.A#X 2.G\	4dd/]	2.e\	.	2.G\	.	.	De-	2.A#X/	.	.	De-	2.e/	.	.	De-	(4dd\	.	De-	De-
.	4cc#X/	.	.	.	.	.	.	.	.	.	.	.	.	.	.	4cc#X\	.	.	.
.	4ee/	.	.	.	.	.	.	.	.	.	.	.	.	.	.	4ee\)	.	.	.
*	*v	*v	*	*	*	*	*	*	*	*	*	*	*	*	*	*	*	*	*
=12	=12	=12	=12	=12	=12	=12	=12	=12	=12	=12	=12	=12	=12	=12	=12	=12	=12	=12
4B 4G\	4dd 4g\	.	4G\	.	.	-um,	4B\	.	.	-um,	4g/	.	.	-um,	4dd\	.	-um	-um,
4r	4r	.	4r	.	.	.	4r	.	.	.	4r	.	.	.	4r	.	.	.
!	!	!LO:DY:b:rj	!	!	!	!	!	!	!	!	!	!	!	!	!	!	!	!
4B 4G\	4g/	p	4G\	.	.	fac-	4B\	.	.	fac-	4g/	.	.	fac-	4g/	.	Fac-	fac-
=13	=13	=13	=13	=13	=13	=13	=13	=13	=13	=13	=13	=13	=13	=13	=13	=13	=13	=13
*^	*^	*	*	*	*	*	*	*	*	*	*	*	*	*	*	*	*	*
*	*2\right	*	*	*	*	*	*	*	*	*	*	*	*	*	*	*	*	*	*	*
2d/	2.D\	4a/	2.f#\	.	2D\	.	.	-to-	2d\	.	.	-to-	2f#/	.	.	-to-	(4a/	.	-to-	-to-
.	.	4ccn/	.	.	.	.	.	.	.	.	.	.	.	.	.	.	4ccn\)	.	.	.
!	!	!	!	!	!	!	!	!	!LO:SIC:o=8d\L:v	!	!	!	!	!	!	!	!LO:SIC:o=8b/L:v	!	!	!
(<8d/L	.	8b/L	.	.	4D\	.	.	-rem	(8d\L	.	.	-rem	4f#/	.	.	-rem	(8b/L	.	-rem	-rem
!	!	!	!	!	!	!	!	!	!LO:SIC:o=8c\J:v	!	!	!	!	!	!	!	!LO:SIC:o=8a/J:v	!	!	!
8c/J)	.	8a/J	.	.	.	.	.	.	8c\J)	.	.	.	.	.	.	.	8a/J)	.	.	.
*v	*v	*	*	*	*	*	*	*	*	*	*	*	*	*	*	*	*	*	*	*
*	*v	*v	*	*	*	*	*	*	*	*	*	*	*	*	*	*	*	*	*
=14	=14	=14	=14	=14	=14	=14	=14	=14	=14	=14	=14	=14	=14	=14	=14	=14	=14	=14
4B 4G\	4dd 4g/	.	4G\	.	.	cae-	4B\	.	.	cae-	4g/	.	.	cae-	4dd\	.	Ca-	cae-
4d 4G\	4b 4g/	.	4G\	.	.	-li	4d\	.	.	-li	4g/	.	.	-li	4b\	.	-eli	-li
4B 4G\	4g/	.	4G\	.	.	et	4B\	.	.	et	4g/	.	.	et	4g\	.	et	et
=15	=15	=15	=15	=15	=15	=15	=15	=15	=15	=15	=15	=15	=15	=15	=15	=15	=15	=15
*^	*^	*	*	*	*	*	*	*	*	*	*	*	*	*	*	*	*	*
2.c/	2C\	4a/	2e\	.	(2C/	.	.	ter-	2.c\	.	.	ter-	(2e/	.	.	ter-	(4a/	.	ter-	ter-
!	!	!	!	!	!	!	!	!	!	!	!	!	!	!	!	!	!LO:SIC:o=4cc/):v	!	!	!
.	.	4cc/	.	.	.	.	.	.	.	.	.	.	.	.	.	.	4cc/	.	.	.
.	4D\	8b/L	4f#\	.	4D/)	.	.	.	.	.	.	.	4f#/)	.	.	.	8b/L	.	.	.
!	!	!	!	!	!	!	!	!	!	!	!	!	!	!	!	!	!LO:SIC:o=8a/J):v	!	!	!
.	.	8a/J	.	.	.	.	.	.	.	.	.	.	.	.	.	.	8a/J)	.	.	.
*v	*v	*	*	*	*	*	*	*	*	*	*	*	*	*	*	*	*	*	*	*
*	*v	*v	*	*	*	*	*	*	*	*	*	*	*	*	*	*	*	*	*
=16	=16	=16	=16	=16	=16	=16	=16	=16	=16	=16	=16	=16	=16	=16	=16	=16	=16	=16
4B 4G\	4g/	.	4G\	.	.	-rae,	4B\	.	.	-rae,	4g/	.	.	-rae,	4g/	.	-ra	-rae,
4G\	4g/	.	4G\	.	.	vi-	4G/	.	.	vi-	4g/	.	.	vi-	4g/	.	vi-	vi-
4G\	4g/	.	4G\	.	.	-si-	4G/	.	.	-si-	4g/	.	.	-si-	4g/	.	-si-	-si-
=17	=17	=17	=17	=17	=17	=17	=17	=17	=17	=17	=17	=17	=17	=17	=17	=17	=17	=17
2G 2E\	2cc 2g/	.	4.E\	.	.	-bi-	4.G/	.	.	-bi-	4.g/	.	.	-bi-	4.cc\	.	-bi-	-bi-
.	.	.	8E\	.	.	-li-	8G/	.	.	-li-	8g/	.	.	-li-	8cc\	.	-li-	-li-
4G 4D\	4b 4g/	.	4D\	.	.	-um	4G/	.	.	-um	4g/	.	.	-um	4b\	.	-um	-um
=18	=18	=18	=18	=18	=18	=18	=18	=18	=18	=18	=18	=18	=18	=18	=18	=18	=18	=18
*^	*^	*	*	*	*	*	*	*	*	*	*	*	*	*	*	*	*	*
4.G/	2C\	2ee/	4.e\	.	4.C/	.	.	om-	4.G/	.	.	om-	4.e/	.	.	om-	4.ee\	.	om-	om-
8A/	.	.	8r	.	8C/	.	.	-ni-	8A\	.	.	-ni-	8f#/	.	.	-ni-	8ee\	.	-ni-	-ni-
4B/	4BB\	4dd 4g/	4ryy	.	8BB/	.	.	-um,	8B\	.	.	-um,	8g/	.	.	-um,	8dd\	.	-um	-um,
!	!	!	!	!	!	!	!	!	!	!	!	!	!	!	!	!	!LO:MO:mod=!null:null	!	!	!
!	!	!	!	!	!	!	!	!	!	!	!	!	!	!	!	!	!LO:TX:a:t=d.	!	!	!
.	.	.	.	.	8BB/	.	.	et	8d\	.	.	et	8g/	.	.	et	8dd\	.	et	et
*v	*v	*	*	*	*	*	*	*	*	*	*	*	*	*	*	*	*	*	*	*
=19	=19	=19	=19	=19	=19	=19	=19	=19	=19	=19	=19	=19	=19	=19	=19	=19	=19	=19	=19
2.A 2.AA\	4.dd/	2.g 2.e\	.	2AA/	.	.	in-	2e\	.	.	in-	2g/	.	.	in-	(4.dd\	.	in-	in-
.	8cc#X/L	.	.	.	.	.	.	.	.	.	.	.	.	.	.	8cc#X\)	.	.	.
.	8b/	.	.	8AA/	.	.	-vi-	8e\	.	.	-vi-	8g/	.	.	-vi-	8b\	.	-vi-	-vi-
.	8cc#/J	.	.	8AA/	.	.	-si-	8e\	.	.	-si-	8g/	.	.	-si-	8cc#\	.	-si-	-si-
!!LO:LB:g=original
=20	=20	=20	=20	=20	=20	=20	=20	=20	=20	=20	=20	=20	=20	=20	=20	=20	=20	=20	=20
[2.A [>2.D\	2ryy	2dd 2f#\	.	8.D\	.	.	-bi-	8.d\	.	.	-bi-	8.f#/	.	.	-bi-	8.dd\	.	-bi-	-bi-
.	.	.	.	16D\	.	.	-li-	16d\	.	.	-li-	16f#/	.	.	-li-	16dd\	.	-li-	-li-
.	.	.	.	4D\	.	.	-um.	4d\	.	.	-um.	4f#/	.	.	-um.	4dd\	.	-um	-um.
.	8dd/L	4f#\	.	8D\	.	.	Et	8d\	.	.	Et	8f#/	.	.	Et	8dd\	.	Et	Et
.	8ff#/J	.	.	8D\	.	.	in	8d\	.	.	in	8f#/	.	.	in	8ff#\	.	in	in
=21	=21	=21	=21	=21	=21	=21	=21	=21	=21	=21	=21	=21	=21	=21	=21	=21	=21	=21	=21
2.A_ 2.D\_>	4.ee/	2.g\	.	2D\	.	.	u-	2c#X\	.	.	u-	2g/	.	.	u-	(4.ee\	.	u-	u-
.	8b/L	.	.	.	.	.	.	.	.	.	.	.	.	.	.	8b\)	.	.	.
!	!	!	!	!	!	!	!	!	!	!	!	!	!	!	!	!LO:SIC:o=8cc#X\L:v	!	!	!
.	8cc#X/	.	.	4D\	.	.	-num	4e\	.	.	-num	4g/	.	.	-num	(8cc#X\L	.	-num	-num
!	!	!	!	!	!	!	!	!	!	!	!	!	!	!	!	!LO:SIC:o=8a\J:v	!	!	!
.	8a/J	.	.	.	.	.	.	.	.	.	.	.	.	.	.	8cc#X\L)	.	.	.
=22	=22	=22	=22	=22	=22	=22	=22	=22	=22	=22	=22	=22	=22	=22	=22	=22	=22	=22	=22
!LO:MO:mod=!null:null	!	!	!	!	!	!	!	!	!	!	!	!	!	!	!	!	!	!	!
!LO:N:vis=2	!	!	!	!	!	!	!	!	!	!	!	!	!	!	!	!	!	!	!
2.A_ 2.D\_>	8dd/L	2.f#\	.	8D\	.	.	Do-	8d\	.	.	Do-	8f#/	.	.	Do-	8dd\	.	Do-	Do-
!	!	!	!	!	!	!	!	!	!	!	!	!	!	!	!	!LO:SIC:o=16cc#X\LL:v	!	!	!
.	16cc#X/L	.	.	8D\	.	.	-mi-	8d\	.	.	-mi-	8f#/	.	.	-mi-	(16cc#X\LL	.	-mi-	-mi-
!	!	!	!	!	!	!	!	!	!	!	!	!	!	!	!	!LO:SIC:o=16b\JJ:v	!	!	!
.	16b/JJ	.	.	.	.	.	.	.	.	.	.	.	.	.	.	16b\JJ)	.	.	.
.	4a/	.	.	4D\	.	.	-num,	4d\	.	.	-num,	4f#/	.	.	-num,	4a/	.	-num	-num,
.	4dd/	.	.	8D\	.	.	et	8d\	.	.	et	8f#/	.	.	et	8dd\	.	Et	et
.	.	.	.	8D\	.	.	in	8f#\	.	.	in	8f#/	.	.	in	8dd\	.	in	in
=23	=23	=23	=23	=23	=23	=23	=23	=23	=23	=23	=23	=23	=23	=23	=23	=23	=23	=23	=23
2.A_ 2.D\_>	2cc#X/	2.g\	.	2D\	.	.	u-	(4.e\	.	.	u-	2g/	.	.	u-	2cc#X\	.	u-	u-
.	.	.	.	.	.	.	.	8B\)	.	.	.	.	.	.	.	.	.	.	.
!	!	!	!	!	!	!	!	!LO:SIC:o=8c#X\L:v	!	!	!	!	!	!	!	!	!	!	!
.	4ee/	.	.	4D\	.	.	-num	(8c#X\L	.	.	-num	4g/	.	.	-num	4ee\	.	-num	-num
!	!	!	!	!	!	!	!	!LO:SIC:o=8A\J:v	!	!	!	!	!	!	!	!	!	!	!
.	.	.	.	.	.	.	.	8A\J)	.	.	.	.	.	.	.	.	.	.	.
*	*v	*v	*	*	*	*	*	*	*	*	*	*	*	*	*	*	*	*	*
=24	=24	=24	=24	=24	=24	=24	=24	=24	=24	=24	=24	=24	=24	=24	=24	=24	=24	=24
2.A] 2.D\]	2.dd 2.f#\	.	8.D\	.	.	Do-	8.d\	.	.	Do-	8.f#/	.	.	Do-	8.dd\	.	Do-	Do-
.	.	.	16D\	.	.	-mi-	16d\	.	.	-mi-	16f#/	.	.	-mi-	16dd\	.	-mi-	-mi-
.	.	.	4D\	.	.	-num	4d\	.	.	-num	4f#/	.	.	-num	4dd\	.	-num	-num
.	.	.	4r	.	.	.	4r	.	.	.	4r	.	.	.	4r	.	.	.
=25	=25	=25	=25	=25	=25	=25	=25	=25	=25	=25	=25	=25	=25	=25	=25	=25	=25	=25
[2.A [>2.AA\	2.f# 2.d/	.	2AA/	.	.	Je-	2d\	.	.	Je-	2a/	.	.	Je-	2ff#\	.	Je-	Je-
.	.	.	4AA/	.	.	-sum	4d\	.	.	-sum	4a/	.	.	-sum	4ff#\	.	-sum	-sum
=26	=26	=26	=26	=26	=26	=26	=26	=26	=26	=26	=26	=26	=26	=26	=26	=26	=26	=26
!	!	!	!	!	!	!	!	!	!	!	!	!	!	!	!LO:SIC:o=8gg\L:v	!	!	!
2.A] 2.AA\]	2.g 2.e 2.c#X/	.	2.AA/	.	.	Chri-	2.e\	.	.	Chri-	2.g/	.	.	Chri-	(8gg\L	.	Chri-	Chri-
.	.	.	.	.	.	.	.	.	.	.	.	.	.	.	8ee\	.	.	.
.	.	.	.	.	.	.	.	.	.	.	.	.	.	.	8b\	.	.	.
.	.	.	.	.	.	.	.	.	.	.	.	.	.	.	8ee\	.	.	.
.	.	.	.	.	.	.	.	.	.	.	.	.	.	.	8cc#X\	.	.	.
!	!	!	!	!	!	!	!	!	!	!	!	!	!	!	!LO:SIC:o=8a\J:v	!	!	!
.	.	.	.	.	.	.	.	.	.	.	.	.	.	.	8a\J)	.	.	.
=27	=27	=27	=27	=27	=27	=27	=27	=27	=27	=27	=27	=27	=27	=27	=27	=27	=27	=27
[2.A 2.D\	2.f# 2.d/	.	4D\	.	.	-stum,	4d\	.	.	-stum,	4f#/	.	.	-stum,	4dd\	.	-stum	-stum,
.	.	.	8r	.	.	.	8r	.	.	.	8r	.	.	.	8r	.	.	.
.	.	.	8D\	.	.	Fi-	8A/	.	.	Fi-	8d/	.	.	Fi-	8f#/	.	Fi-	Fi-
.	.	.	8D\	.	.	-li-	8A/	.	.	-li-	8d/	.	.	-li-	8f#/	.	-li-	-li-
.	.	.	8D\	.	.	-um	8A/	.	.	-um	8d/	.	.	-um	8f#/	.	-um	-um
=28	=28	=28	=28	=28	=28	=28	=28	=28	=28	=28	=28	=28	=28	=28	=28	=28	=28	=28
*	*^	*	*	*	*	*	*	*	*	*	*	*	*	*	*	*	*	*
2.A_ 2.C#X\	2a/	2.e\	.	4.C#X/	.	.	De-	4.A/	.	.	De-	4.e/	.	.	De-	4.a/	.	De-	De-
.	.	.	.	8C#/	.	.	-i	8A/	.	.	-i	8e/	.	.	-i	8a/	.	-i	-i
.	8a/L	.	.	8C#/	.	.	u-	8A/	.	.	u-	8e/	.	.	u-	8a/	.	u-	u-
.	8g/J	.	.	8C#/	.	.	-ni-	8A/	.	.	-ni-	8e/	.	.	-ni-	8a/	.	-ni-	-ni-
*	*v	*v	*	*	*	*	*	*	*	*	*	*	*	*	*	*	*	*	*
!!LO:PB:g=original
=29	=29	=29	=29	=29	=29	=29	=29	=29	=29	=29	=29	=29	=29	=29	=29	=29	=29	=29
2.A_ 2.D\	2.f# 2.d/	.	8.D\	.	.	-ge-	8.A/	.	.	-ge-	8.d/	.	.	-ge-	8.f#/	.	-ge-	-ge-
.	.	.	16D\	.	.	-ni-	16A/	.	.	-ni-	16d/	.	.	-ni-	16f#/	.	-ni-	-ni-
.	.	.	4D\	.	.	-tum.	4A/	.	.	-tum.	4d/	.	.	-tum.	4f#/	.	-tum	-tum.
.	.	.	8D\	.	.	Et	8A/	.	.	Et	8d/	.	.	Et	8f#/	.	Et	Et
.	.	.	8D\	.	.	ex	8A/	.	.	ex	8d/	.	.	ex	8f#/	.	ex	ex
=30	=30	=30	=30	=30	=30	=30	=30	=30	=30	=30	=30	=30	=30	=30	=30	=30	=30	=30
*	*^	*	*	*	*	*	*	*	*	*	*	*	*	*	*	*	*	*
2.A_ 2.C#X\	2a/	2.e\	.	4.C#X/	.	.	Pa-	4.A/	.	.	Pa-	4.e/	.	.	Pa-	4.a/	.	Pa-	Pa-
.	.	.	.	8C#/	.	.	-tre	8A/	.	.	-tre	8e/	.	.	-tre	8a/	.	-tre	-tre
.	8a/L	.	.	8C#/	.	.	na-	8A/	.	.	na-	8e/	.	.	na-	8a/	.	na-	na-
.	8g/J	.	.	8C#/	.	.	-tum	8A/	.	.	-tum	8e/	.	.	-tum	8g/	.	-tum	-tum
*	*v	*v	*	*	*	*	*	*	*	*	*	*	*	*	*	*	*	*	*
=31	=31	=31	=31	=31	=31	=31	=31	=31	=31	=31	=31	=31	=31	=31	=31	=31	=31	=31
2.A_ [2.D\	2.f# 2.d/	.	2D\	.	.	an-	2A/	.	.	an-	2d/	.	.	an-	2f#/	.	an-	an-
.	.	.	4D\	.	.	-te	4A/	.	.	-te	4d/	.	.	-te	4f#/	.	-te	-te
=32	=32	=32	=32	=32	=32	=32	=32	=32	=32	=32	=32	=32	=32	=32	=32	=32	=32	=32
2.A] 2.D\]	2.a 2.f# 2.d/	.	4.D\	.	.	om-	4.d\	.	.	om-	4.f#/	.	.	om-	4.a/	.	o-	om-
.	.	.	8D\	.	.	-ni-	8d\	.	.	-ni-	8f#/	.	.	-ni-	8a/	.	-mni-	-ni-
.	.	.	4D\	.	.	-a	4d\	.	.	-a	4f#/	.	.	-a	4a/	.	-a	-a
=33	=33	=33	=33	=33	=33	=33	=33	=33	=33	=33	=33	=33	=33	=33	=33	=33	=33	=33
2d 2D\	2dd 2f#\	.	2D\	.	.	sae-	2d\	.	.	sae-	2f#/	.	.	sae-	2dd\	.	se-	sae-
4D\	4d/	.	4D\	.	.	-cu-	4D/	.	.	-cu-	4d/	.	.	-cu-	4d/	.	-cu-	-cu-
=34	=34	=34	=34	=34	=34	=34	=34	=34	=34	=34	=34	=34	=34	=34	=34	=34	=34	=34
2D;\	2d;/	.	2D;\	.	.	-la.	2D;/	.	.	-la.	2d;/	.	.	-la.	2d;/	.	-la	-la.
4r	4r	.	4r	.	.	.	4r	.	.	.	4r	.	.	.	4r	.	.	.
=35	=35	=35	=35	=35	=35	=35	=35	=35	=35	=35	=35	=35	=35	=35	=35	=35	=35	=35
2.G 2.BB\	2.g 2.d/	.	4BB/	.	.	De-	4G/	.	.	De-	4d/	.	.	De-	4g/	.	De-	De-
.	.	.	4BB/	.	.	-um	4G/	.	.	-um	4d/	.	.	-um	4g/	.	-um	-um
.	.	.	4BB/	.	.	de	4G/	.	.	de	4d/	.	.	de	4g/	.	de	de
=36	=36	=36	=36	=36	=36	=36	=36	=36	=36	=36	=36	=36	=36	=36	=36	=36	=36	=36
2G 2C\	2g 2e/	.	2C/	.	.	De-	2G/	.	.	De-	2e/	.	.	De-	2g/	.	De-	De-
4G 4BB\	4g 4d/	.	4BB/	.	.	-o,	4G/	.	.	-o,	4d/	.	.	-o,	4g/	.	-o	-o,
=37	=37	=37	=37	=37	=37	=37	=37	=37	=37	=37	=37	=37	=37	=37	=37	=37	=37	=37
4A 4AA\	4cc 4e\	.	4AA/	.	.	Lu-	4A\	.	.	Lu-	4e/	.	.	Lu-	4cc\	.	lu-	Lu-
4c 4A\	4a 4e\	.	4A\	.	.	-men	4c\	.	.	-men	4e/	.	.	-men	4a\	.	-men	-men
4c 4A\	4dd 4f#\	.	4A\	.	.	de	4c\	.	.	de	4f#/	.	.	de	4dd\	.	de	de
=38	=38	=38	=38	=38	=38	=38	=38	=38	=38	=38	=38	=38	=38	=38	=38	=38	=38	=38
*^	*	*	*	*	*	*	*	*	*	*	*	*	*	*	*	*	*	*
8.B/L	4G\	8.ddL 8.g\	.	8.G\	.	.	lu-	8.B\	.	.	lu-	8.g/	.	.	lu-	8.dd\	.	lu-	lu-
16d/Jk	.	16b\Jk	.	16G\	.	.	-mi-	16d\	.	.	-mi-	16g/	.	.	-mi-	16b\	.	-mi-	-mi-
4B/	4G\	4g/	.	4G\	.	.	-ne,	4B\	.	.	-ne,	4g/	.	.	-ne,	4g/	.	-ne	-ne,
4r	4ryy	4r	.	4r	.	.	.	4r	.	.	.	4r	.	.	.	4r	.	.	.
*v	*v	*	*	*	*	*	*	*	*	*	*	*	*	*	*	*	*	*	*
!!LO:LB:g=original
=39	=39	=39	=39	=39	=39	=39	=39	=39	=39	=39	=39	=39	=39	=39	=39	=39	=39	=39
2.G\	2.g/	.	2G\	.	.	De-	2G/	.	.	De-	2g/	.	.	De-	2g/	.	De-	De-
.	.	.	4G\	.	.	-um	4G/	.	.	-um	4g/	.	.	-um	4g/	.	-um	-um
=40	=40	=40	=40	=40	=40	=40	=40	=40	=40	=40	=40	=40	=40	=40	=40	=40	=40	=40
4B-X\	4b-X/	.	4B-X\	.	.	ve-	4B-X/	.	.	ve-	4b-X/	.	.	ve-	4b-X/	.	ve-	ve-
4G\	4g/	.	4G\	.	.	-rum	4G/	.	.	-rum	4g/	.	.	-rum	4g/	.	-rum	-rum
4E-X\	4e-X/	.	4E-X\	.	.	de	4E-X/	.	.	de	4e-X/	.	.	de	4e-X/	.	de	de
=41	=41	=41	=41	=41	=41	=41	=41	=41	=41	=41	=41	=41	=41	=41	=41	=41	=41	=41
2D\	2d/	.	2D\	.	.	De-	2D/	.	.	De-	2d/	.	.	De-	2d/	.	De-	De-
4C#X\	4c#X/	.	4C#X\	.	.	-o	4C#X/	.	.	-o	4c#X/	.	.	-o	4c#X/	.	-o	-o
=42	=42	=42	=42	=42	=42	=42	=42	=42	=42	=42	=42	=42	=42	=42	=42	=42	=42	=42
2.D;\	2.d;/	.	2.D;\	.	.	ve-	2.D;/	.	.	ve-	2.d;/	.	.	ve-	2.d;/	.	ve-	ve-
=43	=43	=43	=43	=43	=43	=43	=43	=43	=43	=43	=43	=43	=43	=43	=43	=43	=43	=43
4D\	4d/	.	4D\	.	.	-ro.	4D/	.	.	-ro.	4d/	.	.	-ro.	4d/	.	-ro	-ro.
4r;	4r;	.	4r;	.	.	.	4r;	.	.	.	4r;	.	.	.	4r;	.	.	.
=||	=||	=||	=||	=||	=||	=||	=||	=||	=||	=||	=||	=||	=||	=||	=||	=||	=||	=||
*k[b-e-]	*k[b-e-]	*	*k[b-e-]	*	*	*	*k[b-e-]	*	*	*	*k[b-e-]	*	*	*	*k[b-e-]	*	*	*
*M3/4	*M3/4	*	*M3/4	*	*	*	*M3/4	*	*	*	*M3/4	*	*	*	*M3/4	*	*	*
!!!OMD: Andante con moto.
!!!OMD-mod: Andante con moto
!	!	!LO:DY:b:rj	!	!LO:DY:b:rj	!	!	!	!LO:DY:b:rj	!	!	!	!LO:DY:b:rj	!	!	!	!LO:DY:b:rj	!	!
4F 4BB-\	4dd 4b-\	p	4BB-/	p	.	Et	4d\	p	.	Et	4b-\	p	.	Et	4ff\	p	Et	Et
=44	=44	=44	=44	=44	=44	=44	=44	=44	=44	=44	=44	=44	=44	=44	=44	=44	=44	=44
2.F 2.BB-\	4.cc 4.a\	.	2BB-/	.	.	in-	(4.c\	.	.	in-	(4.a/	.	.	in-	2ff\	.	in-	in-
.	16ddLL 16b-\	.	.	.	.	.	16d\LL	.	.	.	16b-/LL	.	.	.	.	.	.	.
.	16ccJJ 16a\	.	.	.	.	.	16c\JJ)	.	.	.	16a/JJ)	.	.	.	.	.	.	.
!	!	!	!	!	!	!	!LO:SIC:o=8B-\L:v	!	!	!	!LO:SIC:o=8g/L:v	!	!	!	!	!	!	!
.	8b-L 8g\	.	4BB-/	.	.	-car-	(8B-\L	.	.	-car-	(8g/L	.	.	-car-	4ff\	.	-car-	-car-
!	!	!	!	!	!	!	!LO:SIC:o=8c\J:v	!	!	!	!LO:SIC:o=8a/J:v	!	!	!	!	!	!	!
.	8ccJ 8a\	.	.	.	.	.	8c\J)	.	.	.	8a/J)	.	.	.	.	.	.	.
=45	=45	=45	=45	=45	=45	=45	=45	=45	=45	=45	=45	=45	=45	=45	=45	=45	=45	=45
[2.B- [2.BB-\	8.ddL 8.b-\	.	8.BB-/	.	.	-na-	8.d\	.	.	-na-	8.b-/	.	.	-na-	8.ff\	.	-na-	-na-
.	16b-Jk 16g\	.	16BB-/	.	.	-tus	16B-\	.	.	-tus	16f/	.	.	-tus	16ff\	.	-tus	-tus
!	!	!	!	!	!	!	!	!	!	!	!	!	!	!	!LO:SIC:o=8ff\L:v	!	!	!
.	4f 4d/	.	4BB-/	.	.	est	4F/	.	.	est	4d/	.	.	est	(8ff\L	.	est	est
!	!	!	!	!	!	!	!	!	!	!	!	!	!	!	!LO:SIC:o=8een\J:v	!	!	!
.	.	.	.	.	.	.	.	.	.	.	.	.	.	.	8een\J)	.	.	.
!	!	!	!	!	!	!	!	!	!	!	!	!	!	!	!LO:SIC:o=8gg\L:v	!	!	!
.	4b- 4d/	.	4BB-/	.	.	de	4d\	.	.	de	4b-\	.	.	de	(8gg\L	.	de	de
!	!	!	!	!	!	!	!	!	!	!	!	!	!	!	!LO:SIC:o=8ff\J:v	!	!	!
.	.	.	.	.	.	.	.	.	.	.	.	.	.	.	8ff\J)	.	.	.
=46	=46	=46	=46	=46	=46	=46	=46	=46	=46	=46	=46	=46	=46	=46	=46	=46	=46	=46
*	*^	*	*	*	*	*	*	*	*	*	*	*	*	*	*	*	*	*
!	!LO:MO:mod=!null:null	!	!	!	!	!	!	!	!	!	!	!	!	!	!	!	!	!	!
!	!LO:N:vis=2.	!	!	!	!	!	!	!	!	!	!	!	!	!	!	!LO:SIC:o=8ee-X\L:v	!	!	!
2.B-_ 2.BB-\_	2g 2e-/	2ryy	.	4.BB-/	.	.	Spi-	4.e-\	.	.	Spi-	4.g/	.	.	Spi-	(8ee-X\L	.	spi-	Spi-
.	.	.	.	.	.	.	.	.	.	.	.	.	.	.	.	8dd\	.	.	.
!	!	!	!	!	!	!	!	!	!	!	!	!	!	!	!	!LO:SIC:o=8ee-\J:v	!	!	!
.	.	.	.	.	.	.	.	.	.	.	.	.	.	.	.	8ee-\J)	.	.	.
.	.	.	.	8BB-/	.	.	-ri-	8e-\	.	.	-ri-	8g/	.	.	-ri-	8cc\	.	-ri-	-ri-
!	!	!	!	!	!	!	!	!LO:SIC:o=8c\L:v	!	!	!	!	!	!	!	!LO:SIC:o=8g/L:v	!	!	!
.	8g/L	4e-\	.	4BB-/	.	.	-tu	(8c\L	.	.	-tu	4e-/	.	.	-tu	(8g/L	.	-tu	-tu
!	!	!	!	!	!	!	!	!LO:SIC:o=8F\J:v	!	!	!	!	!	!	!	!LO:SIC:o=8a/J:v	!	!	!
.	8a/J	.	.	.	.	.	.	8F\J)	.	.	.	.	.	.	.	8a/J)	.	.	.
=47	=47	=47	=47	=47	=47	=47	=47	=47	=47	=47	=47	=47	=47	=47	=47	=47	=47	=47	=47
!	!	!	!	!	!	!	!	!	!	!	!	!	!	!	!	!LO:SIC:o=8b-/L:v	!	!	!
2B-] 2BB-\]	8b-/L	4d\	.	4BB-/	.	.	San-	4B-\	.	.	San-	4d/	.	.	San-	(8b-/L	.	san-	San-
.	16a/L	.	.	.	.	.	.	.	.	.	.	.	.	.	.	16a/L	.	.	.
!	!	!	!	!	!	!	!	!	!	!	!	!	!	!	!	!LO:SIC:o=16g/JJ:v	!	!	!
.	16g/JJ	.	.	.	.	.	.	.	.	.	.	.	.	.	.	16g/JJ)	.	.	.
.	4f/	4d\	.	4BB-/	.	.	-cto,	4B-\	.	.	-cto,	4d/	.	.	-cto,	4f/	.	-cto	-cto,
*	*clefF4	*	*	*	*	*	*	*	*	*	*	*	*	*	*	*	*	*	*
4F 4BB-\	4d 4B-\	4ryy	.	4BB-/	.	.	et	4d\	.	.	et	4f/	.	.	et	4b-\	.	et	et
*	*v	*v	*	*	*	*	*	*	*	*	*	*	*	*	*	*	*	*	*
!!LO:PB:g=original
=48	=48	=48	=48	=48	=48	=48	=48	=48	=48	=48	=48	=48	=48	=48	=48	=48	=48	=48
[2.F [>2.BB-\	4.c 4.A\	.	2BB-/	.	.	in-	(4.c\	.	.	in-	2f/	.	.	in-	(4.a/	.	in-	in-
.	16dLL 16B-\	.	.	.	.	.	16d\LL	.	.	.	.	.	.	.	16b-/LL	.	.	.
.	16cJJ 16A\	.	.	.	.	.	16c\JJ)	.	.	.	.	.	.	.	16a/JJ)	.	.	.
!	!	!	!	!	!	!	!LO:SIC:o=8B-\L:v	!	!	!	!	!	!	!	!LO:SIC:o=8g/L:v	!	!	!
.	8B-L 8G\	.	4BB-/	.	.	-car-	(8B-\L	.	.	-car-	4f/	.	.	-car-	(8g/L	.	-car-	-car-
!	!	!	!	!	!	!	!LO:SIC:o=8c\J:v	!	!	!	!	!	!	!	!LO:SIC:o=8a/J:v	!	!	!
.	8cJ 8A\	.	.	.	.	.	8c\J)	.	.	.	.	.	.	.	8a/J)	.	.	.
=49	=49	=49	=49	=49	=49	=49	=49	=49	=49	=49	=49	=49	=49	=49	=49	=49	=49	=49
2F] 2BB-\]	4d 4B-\	.	8.BB-/	.	.	-na-	8.d\	.	.	-na-	8.f/	.	.	-na-	8.b-\	.	-na-	-na-
.	.	.	16BB-/	.	.	-tus	16B-\	.	.	-tus	16f/	.	.	-tus	16f/	.	-tus	-tus
*	*clefG2	*	*	*	*	*	*	*	*	*	*	*	*	*	*	*	*	*
!	!	!	!	!	!	!	!	!	!	!	!	!	!	!	!LO:SIC:o=8dd\L:v	!	!	!
.	4f 4d/	.	4BB-/	.	.	est	4F/	.	.	est	4f/	.	.	est	(8dd\L	.	est	est
!	!	!	!	!	!	!	!	!	!	!	!	!	!	!	!LO:SIC:o=8cc#X\J:v	!	!	!
.	.	.	.	.	.	.	.	.	.	.	.	.	.	.	8cc#X\J)	.	.	.
!	!	!	!	!	!	!	!	!	!	!	!	!	!	!	!LO:SIC:o=8ee-\L:v	!	!	!
4B- 4BB-\	4b- 4d/	.	4BB-/	.	.	de	4F/	.	.	de	4f/	.	.	de	(8ee-\L	.	de	de
!	!	!	!	!	!	!	!	!	!	!	!	!	!	!	!LO:SIC:o=8dd\J:v	!	!	!
.	.	.	.	.	.	.	.	.	.	.	.	.	.	.	8dd\J)	.	.	.
=50	=50	=50	=50	=50	=50	=50	=50	=50	=50	=50	=50	=50	=50	=50	=50	=50	=50	=50
!	!	!	!	!	!	!	!	!	!	!	!	!	!	!	!LO:SIC:o=8ccn\L:v	!	!	!
[2.BB-/	2g 2e-/	.	4.BB-/	.	.	Spi-	4.G/	.	.	Spi-	4.e-/	.	.	Spi-	(8ccn\L	.	spi-	Spi-
.	.	.	.	.	.	.	.	.	.	.	.	.	.	.	8bn\	.	.	.
!	!	!	!	!	!	!	!	!	!	!	!	!	!	!	!LO:SIC:o=8cc\J:v	!	!	!
.	.	.	.	.	.	.	.	.	.	.	.	.	.	.	8cc\J)	.	.	.
.	.	.	8BB-/	.	.	-ri-	8G/	.	.	-ri-	8e-/	.	.	-ri-	8g/	.	-ri-	-ri-
!	!	!	!	!	!	!	!LO:SIC:o=8c\L:v	!	!	!	!	!	!	!	!LO:SIC:o=8a/L:v	!	!	!
.	4e- 4c/	.	4BB-/	.	.	-tu	(8c\L	.	.	-tu	4e-/	.	.	-tu	(8a/L	.	-tu-	-tu
!	!	!	!	!	!	!	!LO:SIC:o=8A\J:v	!	!	!	!	!	!	!	!LO:SIC:o=8f/J:v	!	!	!
.	.	.	.	.	.	.	8A\J)	.	.	.	.	.	.	.	8f/J)	.	.	.
=51	=51	=51	=51	=51	=51	=51	=51	=51	=51	=51	=51	=51	=51	=51	=51	=51	=51	=51
!	!	!	!	!	!	!	!	!	!	!	!	!	!	!	!LO:SIC:o=8.b-\L:v	!	!	!
2.BB-/_	2d 2B-/	.	4BB-/	.	.	San-	4B-\	.	.	San-	4d/	.	.	San-	(8.b-\L	.	-san-	San-
!	!	!	!	!	!	!	!	!	!	!	!	!	!	!	!LO:SIC:o=16cc\Jk:v	!	!	!
.	.	.	.	.	.	.	.	.	.	.	.	.	.	.	16cc\Jk)	.	.	.
.	.	.	4BB-/	.	.	-cto	4B-\	.	.	-cto	4d/	.	.	-cto	4dd\	.	-cto	-cto
.	4f 4d 4B-/	.	8.BB-/	.	.	ex	8.B-\	.	.	ex	8.d/	.	.	ex	8.f/	.	ex	ex
.	.	.	16BB-/	.	.	Ma-	16B-\	.	.	Ma-	16d/	.	.	Ma-	16f/	.	Ma-	Ma-
=52	=52	=52	=52	=52	=52	=52	=52	=52	=52	=52	=52	=52	=52	=52	=52	=52	=52	=52
2.BB-/_	2.f 2.e- 2.c 2.A/	.	4.BB-/	.	.	-ri-	4.A\	.	.	-ri-	4.e-/	.	.	-ri-	4.f/	.	-ri-	-ri-
.	.	.	8BB-/	.	.	-a	8A\	.	.	-a	8e-/	.	.	-a	8f/	.	-a	-a
.	.	.	8.BB-/	.	.	Vir-	8.A\	.	.	Vir-	8.e-/	.	.	Vir-	8.f/	.	Vir-	Vir-
.	.	.	16BB-/	.	.	-gi-	16A\	.	.	-gi-	16e-/	.	.	-gi-	16f/	.	-gi-	-gi-
=53	=53	=53	=53	=53	=53	=53	=53	=53	=53	=53	=53	=53	=53	=53	=53	=53	=53	=53
!	!LO:MO:mod=!null:null	!	!	!	!	!	!	!	!	!	!	!	!	!	!	!	!	!
!	!LO:N:vis=2	!	!	!	!	!	!	!	!	!	!	!	!	!	!	!	!	!
2.BB-/_	2.f 2.d 2.B-/	.	2BB-/	.	.	-ne,	2B-\	.	.	-ne,	2d/	.	.	-ne,	2f/	.	-ne	-ne,
.	.	.	8.BB-/	.	.	ex	8.F/	.	.	ex	8.d/	.	.	ex	8.f/	.	ex	ex
.	.	.	16BB-/	.	.	Ma-	16F/	.	.	Ma-	16d/	.	.	Ma-	16f/	.	Ma-	Ma-
=54	=54	=54	=54	=54	=54	=54	=54	=54	=54	=54	=54	=54	=54	=54	=54	=54	=54	=54
2.BB-/_	2.f 2.e- 2.c 2.A/	.	4.BB-/	.	.	-ri-	4.A/	.	.	-ri-	4.e-/	.	.	-ri-	4.f/	.	-ri-	-ri-
.	.	.	8BB-/	.	.	-a	8A/	.	.	-a	8e-/	.	.	-a	8f/	.	-a	-a
.	.	.	8.BB-/	.	.	Vir-	8.A/	.	.	Vir-	8.e-/	.	.	Vir-	8.f/	.	vir-	Vir-
.	.	.	16BB-/	.	.	-gi-	16A/	.	.	-gi-	16e-/	.	.	-gi-	16f/	.	-gi-	-gi-
=55	=55	=55	=55	=55	=55	=55	=55	=55	=55	=55	=55	=55	=55	=55	=55	=55	=55	=55
[2.F 2.BB-\_	[2.f [>2.d [2.B-/	.	2BB-/	.	.	-ne,	2B-\	.	.	-ne,	2d/	.	.	-ne,	2f/	.	-ne	-ne,
.	.	.	8BB-/	.	.	ex	8d\	.	.	ex	8d/	.	.	ex	8f/	.	ex	ex
.	.	.	8BB-/	.	.	Ma-	8F/	.	.	Ma-	8d/	.	.	Ma-	8dd\	.	Ma-	Ma-
!!LO:LB:g=original
=56	=56	=56	=56	=56	=56	=56	=56	=56	=56	=56	=56	=56	=56	=56	=56	=56	=56	=56
2.F_ 2.BB-\_	2.f_ 2.d_> 2.B-/_	.	4.BB-/	.	.	-ri-	4.B-\	.	.	-ri-	4.d/	.	.	-ri-	4.b-\	.	-ri-	-ri-
.	.	.	8BB-/	.	.	-a	8B-\	.	.	-a	8d/	.	.	-a	8f/	.	-a	-a
.	.	.	8BB-/	.	.	Vir-	8d\	.	.	Vir-	8d/	.	.	Vir-	8f/	.	Vir-	Vir-
.	.	.	8BB-/	.	.	-gi-	8F/	.	.	-gi-	8d/	.	.	-gi-	8dd\	.	-gi-	-gi-
=57	=57	=57	=57	=57	=57	=57	=57	=57	=57	=57	=57	=57	=57	=57	=57	=57	=57	=57
2.F_ 2.BB-\_	2.f_ 2.d_> 2.B-/_	.	2BB-/	.	.	-ne,	2B-\	.	.	-ne,	2d/	.	.	-ne,	2b-\	.	-ne	-ne,
.	.	.	8BB-/	.	.	ex	8d\	.	.	ex	8d/	.	.	ex	8f/	.	ex	ex
.	.	.	8BB-/	.	.	Ma-	8F/	.	.	Ma-	8d/	.	.	Ma-	8dd\	.	Ma-	Ma-
=58	=58	=58	=58	=58	=58	=58	=58	=58	=58	=58	=58	=58	=58	=58	=58	=58	=58	=58
2.F_ 2.BB-\_	2.f_ 2.d_> 2.B-/_	.	4.BB-/	.	.	-ri-	4.B-\	.	.	-ri-	4.d/	.	.	-ri-	4.b-\	.	-ri-	-ri-
.	.	.	8BB-/	.	.	-a	8B-\	.	.	-a	8d/	.	.	-a	8f/	.	-a	-a
.	.	.	8BB-/	.	.	Vir-	8d\	.	.	Vir-	8d/	.	.	Vir-	8f/	.	vir-	Vir-
.	.	.	8BB-/	.	.	-gi-	8F/	.	.	-gi-	8d/	.	.	-gi-	8dd\	.	-gi-	-gi-
=59	=59	=59	=59	=59	=59	=59	=59	=59	=59	=59	=59	=59	=59	=59	=59	=59	=59	=59
2F] 2BB-;<\]	2f] 2d] 2B-;/]	.	2BB-;/	.	.	-ne.	2B-;\	.	.	-ne.	2d;/	.	.	-ne.	2b-;\	.	-ne	-ne.
4r	4r	.	4r	.	.	.	4r	.	.	.	4r	.	.	.	4r	.	.	.
*kcancel	*kcancel	*	*kcancel	*	*	*	*kcancel	*	*	*	*kcancel	*	*	*	*kcancel	*	*	*
=60||	=60||	=60||	=60||	=60||	=60||	=60||	=60||	=60||	=60||	=60||	=60||	=60||	=60||	=60||	=60||	=60||	=60||	=60||
!!!OMD: Allº moderato.
!!!OMD-mod: Allegro moderato
*k[f#]	*k[f#]	*	*k[f#]	*	*	*	*k[f#]	*	*	*	*k[f#]	*	*	*	*k[f#]	*	*	*
*M3/4	*M3/4	*	*M3/4	*	*	*	*M3/4	*	*	*	*M3/4	*	*	*	*M3/4	*	*	*
!	!	!LO:DY:b:rj	!	!	!	!	!	!	!	!	!	!	!	!	!	!	!	!
[>2.c [>2.A [<2.F# [<2.D\	2.dd 2.a 2.f#\	f	2.r	.	.	.	2.r	.	.	.	2.r	.	.	.	2.r	.	.	.
=61	=61	=61	=61	=61	=61	=61	=61	=61	=61	=61	=61	=61	=61	=61	=61	=61	=61	=61
2.c] 2.A] 2.F#] 2.D\]	(8ff#\L	.	2.r	.	.	.	2.r	.	.	.	2.r	.	.	.	2.r	.	.	.
.	8ee\	.	.	.	.	.	.	.	.	.	.	.	.	.	.	.	.	.
.	8dd\	.	.	.	.	.	.	.	.	.	.	.	.	.	.	.	.	.
.	8a\	.	.	.	.	.	.	.	.	.	.	.	.	.	.	.	.	.
.	8f#\	.	.	.	.	.	.	.	.	.	.	.	.	.	.	.	.	.
.	8a\J)	.	.	.	.	.	.	.	.	.	.	.	.	.	.	.	.	.
=62	=62	=62	=62	=62	=62	=62	=62	=62	=62	=62	=62	=62	=62	=62	=62	=62	=62	=62
4B 4G\	4d/	.	4G\	.	.	-Cre-	4B\	.	.	-Cre-	4d/	.	.	-Cre-	4d/	.	-Cre-	-Cre-
4B 4G\	4g 4d/	.	4G\	.	.	-do	4B\	.	.	-do	4d/	.	.	-do	4g/	.	-do	-do
4B 4G\	4b 4d/	.	4G\	.	.	in	4B\	.	.	in	4d/	.	.	in	4b/	.	in	in
=63	=63	=63	=63	=63	=63	=63	=63	=63	=63	=63	=63	=63	=63	=63	=63	=63	=63	=63
2.B 2.G\	[2.dd 2.d/	.	4.G\	.	.	Spi-	4.B\	.	.	Spi-	4.d/	.	.	Spi-	4.dd\	.	spi-	Spi-
.	.	.	8G\	.	.	-ri-	8B\	.	.	-ri-	8d/	.	.	-ri-	8dd\	.	-ri-	-ri-
.	.	.	4G\	.	.	-tum	4B\	.	.	-tum	4d/	.	.	-tum	4dd\	.	-tum	-tum
=64	=64	=64	=64	=64	=64	=64	=64	=64	=64	=64	=64	=64	=64	=64	=64	=64	=64	=64
*	*^	*	*	*	*	*	*	*	*	*	*	*	*	*	*	*	*	*
*2\left	*	*	*	*	*	*	*	*	*	*	*	*	*	*	*	*	*	*	*
2.A#X 2.G\	4dd/]	2.e\	.	2.G\	.	.	San-	2.A#X/	.	.	San-	2.e/	.	.	San-	(4dd\	.	san-	San-
.	4cc#X/	.	.	.	.	.	.	.	.	.	.	.	.	.	.	4cc#X\	.	.	.
.	4ee/	.	.	.	.	.	.	.	.	.	.	.	.	.	.	4ee\)	.	.	.
*	*v	*v	*	*	*	*	*	*	*	*	*	*	*	*	*	*	*	*	*
=65	=65	=65	=65	=65	=65	=65	=65	=65	=65	=65	=65	=65	=65	=65	=65	=65	=65	=65
!	!LO:SIC:vn=2:o=4dd 4f#\	!	!	!	!	!	!	!	!	!	!	!	!	!	!	!	!	!
4B 4G\	4g	.	4G\	.	.	-ctum,	4B\	.	.	-ctum,	4g/	.	.	-ctum,	4dd\	.	-ctum	-ctum,
4r	4r	.	4r	.	.	.	4r	.	.	.	4r	.	.	.	4r	.	.	.
4r	4r	.	4r	.	.	.	4r	.	.	.	4r	.	.	.	4r	.	.	.
!!LO:PB:g=original
=66	=66	=66	=66	=66	=66	=66	=66	=66	=66	=66	=66	=66	=66	=66	=66	=66	=66	=66
*^	*^	*	*	*	*	*	*	*	*	*	*	*	*	*	*	*	*	*
*	*2\right	*	*	*	*	*	*	*	*	*	*	*	*	*	*	*	*	*	*	*
2d/	2.D\	4a/	2.f#\	.	4D\	.	.	Do-	4d\	.	.	Do-	4f#/	.	.	Do-	4a/	.	Do-	Do-
.	.	4ccn/	.	.	4D\	.	.	-mi-	4d\	.	.	-mi-	4f#/	.	.	-mi-	4ccn\	.	-mi-	-mi-
!	!	!	!	!	!	!	!	!	!LO:SIC:o=8d\L:v	!	!	!	!	!	!	!	!LO:SIC:o=8b\L:v	!	!	!
8d/L	.	8b/L	.	.	4D\	.	.	-num,	(8d\L	.	.	-num,	4f#/	.	.	-num,	(8b\L	.	-num	-num,
!	!	!	!	!	!	!	!	!	!LO:SIC:o=8c\J:v	!	!	!	!	!	!	!	!LO:SIC:o=8a\J:v	!	!	!
8c/J	.	8a/J	.	.	.	.	.	.	8c\J)	.	.	.	.	.	.	.	8a\J)	.	.	.
=67	=67	=67	=67	=67	=67	=67	=67	=67	=67	=67	=67	=67	=67	=67	=67	=67	=67	=67	=67	=67
4B/	2.G\	4dd/	2.g\	.	4G\	.	.	et	4B\	.	.	et	4g/	.	.	et	4dd\	.	et	et
4d/	.	4b/	.	.	4G\	.	.	vi-	4d\	.	.	vi-	4g/	.	.	vi-	4b\	.	vi-	vi-
4B/	.	4g/	.	.	8G\	.	.	-vi-	8B\	.	.	-vi-	8g/	.	.	-vi-	8g/	.	-vi-	-vi-
.	.	.	.	.	8G\	.	.	-fi-	8B\	.	.	-fi-	8g/	.	.	-fi-	8g/	.	-fi-	-fi-
*v	*v	*	*	*	*	*	*	*	*	*	*	*	*	*	*	*	*	*	*	*
=68	=68	=68	=68	=68	=68	=68	=68	=68	=68	=68	=68	=68	=68	=68	=68	=68	=68	=68	=68
2c 2C\	2ee/	2g\	.	(2C/	.	.	-can-	(2c\	.	.	-can-	(2g/	.	.	-can-	(2ee\	.	-can-	-can-
4A 4D\	8dd/L	4f#\	.	4D/)	.	.	.	4A\)	.	.	.	4f#/)	.	.	.	8dd\L	.	.	.
.	8cc/J	.	.	.	.	.	.	.	.	.	.	.	.	.	.	8cc\J)	.	.	.
*	*v	*v	*	*	*	*	*	*	*	*	*	*	*	*	*	*	*	*	*
=69	=69	=69	=69	=69	=69	=69	=69	=69	=69	=69	=69	=69	=69	=69	=69	=69	=69	=69
2B 2G\	2b 2g/	.	2G\	.	.	-tem.	2B\	.	.	-tem.	2g/	.	.	-tem.	2b\	.	-tem	-tem.
4r	4r	.	4r	.	.	.	4r	.	.	.	4r	.	.	.	4r	.	.	.
=70	=70	=70	=70	=70	=70	=70	=70	=70	=70	=70	=70	=70	=70	=70	=70	=70	=70	=70
4B 4G\	4d/	.	4G\	.	.	Cre-	4B\	.	.	Cre-	4d/	.	.	Cre-	4d/	.	Cre-	Cre-
4B 4G\	4g 4d/	.	4G\	.	.	-do	4B\	.	.	-do	4d/	.	.	-do	4g/	.	-do	-do
4B 4G\	4b 4d/	.	4G\	.	.	in	4B\	.	.	in	4d/	.	.	in	4b/	.	in	in
=71	=71	=71	=71	=71	=71	=71	=71	=71	=71	=71	=71	=71	=71	=71	=71	=71	=71	=71
2.B 2.G\	[2.dd 2.d/	.	4.G\	.	.	Spi-	4.B\	.	.	Spi-	4.d/	.	.	Spi-	4.dd\	.	spi-	Spi-
.	.	.	8G\	.	.	-ri-	8B\	.	.	-ri-	8d/	.	.	-ri-	8dd\	.	-ri-	-ri-
.	.	.	4G\	.	.	-tum	4B\	.	.	-tum	4d/	.	.	-tum	4dd\	.	-tum	-tum
=72	=72	=72	=72	=72	=72	=72	=72	=72	=72	=72	=72	=72	=72	=72	=72	=72	=72	=72
*	*^	*	*	*	*	*	*	*	*	*	*	*	*	*	*	*	*	*
*2\left	*	*	*	*	*	*	*	*	*	*	*	*	*	*	*	*	*	*	*
2.A#X 2.G\	4dd/]	2.e\	.	2.G\	.	.	San-	2.A#X\	.	.	San-	2.e/	.	.	San-	(4dd\	.	san-	San-
.	4cc#X/	.	.	.	.	.	.	.	.	.	.	.	.	.	.	4cc#X\	.	.	.
.	4ee/	.	.	.	.	.	.	.	.	.	.	.	.	.	.	4ee\)	.	.	.
*	*v	*v	*	*	*	*	*	*	*	*	*	*	*	*	*	*	*	*	*
=73	=73	=73	=73	=73	=73	=73	=73	=73	=73	=73	=73	=73	=73	=73	=73	=73	=73	=73
4B 4G\	4dd 4g\	.	4G\	.	.	-ctum,	4B\	.	.	-ctum,	4g/	.	.	-ctum,	4dd\	.	-ctum	-ctum,
4r	4r	.	4r	.	.	.	4r	.	.	.	4r	.	.	.	4r	.	.	.
4r	4r	.	4r	.	.	.	4r	.	.	.	4r	.	.	.	4r	.	.	.
=74	=74	=74	=74	=74	=74	=74	=74	=74	=74	=74	=74	=74	=74	=74	=74	=74	=74	=74
*^	*^	*	*	*	*	*	*	*	*	*	*	*	*	*	*	*	*	*
*	*2\right	*	*	*	*	*	*	*	*	*	*	*	*	*	*	*	*	*	*	*
2d/	2.D\	4a/	2.f#\	.	4D\	.	.	Do-	4d\	.	.	Do-	4f#/	.	.	Do-	4a/	.	Do-	Do-
.	.	4ccn/	.	.	4D\	.	.	-mi-	4d\	.	.	-mi-	4f#/	.	.	-mi-	4ccn\	.	-mi-	-mi-
!	!	!	!	!	!	!	!	!	!LO:SIC:o=8d\L:v	!	!	!	!	!	!	!	!LO:SIC:o=8b\L:v	!	!	!
8d/L	.	8b/L	.	.	4D\	.	.	-num,	(8d\L	.	.	-num,	4f#/	.	.	-num,	(8b\L	.	-num	-num,
!	!	!	!	!	!	!	!	!	!LO:SIC:o=8c\J:v	!	!	!	!	!	!	!	!LO:SIC:o=8a\J:v	!	!	!
8c/J	.	8a/J	.	.	.	.	.	.	8c\J)	.	.	.	.	.	.	.	8a\J)	.	.	.
=75	=75	=75	=75	=75	=75	=75	=75	=75	=75	=75	=75	=75	=75	=75	=75	=75	=75	=75	=75	=75
4B/	2.G\	4dd/	2g\	.	4G\	.	.	et	4B\	.	.	et	4g/	.	.	et	4dd\	.	et	et
4d/	.	4b/	.	.	4G\	.	.	vi-	4d\	.	.	vi-	4g/	.	.	vi-	4b\	.	vi-	vi-
4B/	.	4g/	4g\	.	8G\	.	.	-vi-	8B\	.	.	-vi-	8g/	.	.	-vi-	8g/	.	-vi-	-vi-
.	.	.	.	.	8G\	.	.	-fi-	8B\	.	.	-fi-	8g/	.	.	-fi-	8g/	.	-fi-	-fi-
*v	*v	*	*	*	*	*	*	*	*	*	*	*	*	*	*	*	*	*	*	*
=76	=76	=76	=76	=76	=76	=76	=76	=76	=76	=76	=76	=76	=76	=76	=76	=76	=76	=76	=76
2c 2C\	4a/	2e\	.	(2C/	.	.	-can-	2.c\	.	.	-can-	(2e/	.	.	-can-	(4a\	.	-can-	-can-
.	4cc/	.	.	.	.	.	.	.	.	.	.	.	.	.	.	4cc\	.	.	.
4D\	8b/L	4f#\	.	4D/)	.	.	.	.	.	.	.	4f#/)	.	.	.	8b\L	.	.	.
.	8a/J	.	.	.	.	.	.	.	.	.	.	.	.	.	.	8a\J)	.	.	.
*	*v	*v	*	*	*	*	*	*	*	*	*	*	*	*	*	*	*	*	*
!!LO:LB:g=original
=77	=77	=77	=77	=77	=77	=77	=77	=77	=77	=77	=77	=77	=77	=77	=77	=77	=77	=77
4B 4G\	4g/	.	4G\	.	.	-tem.	4B\	.	.	-tem.	4g/	.	.	-tem.	4g/	.	-tem	-tem.
4G\	4g/	.	4G\	.	.	Et	4G/	.	.	Et	4g/	.	.	Et	4g/	.	Et	Et
4G\	4g/	.	4G\	.	.	ex-	4G/	.	.	ex-	4g/	.	.	ex-	4g/	.	ex-	ex-
=78	=78	=78	=78	=78	=78	=78	=78	=78	=78	=78	=78	=78	=78	=78	=78	=78	=78	=78
*^	*^	*	*	*	*	*	*	*	*	*	*	*	*	*	*	*	*	*
2.G/	2E\	2cc/	2.g\	.	2E\	.	.	-spec-	2G/	.	.	-spec-	2g/	.	.	-spec-	2cc\	.	-pec-	-spec-
.	4D\	4b/	.	.	4D\	.	.	-to	4G/	.	.	-to	4g/	.	.	-to	4b\	.	-to	-to
=79	=79	=79	=79	=79	=79	=79	=79	=79	=79	=79	=79	=79	=79	=79	=79	=79	=79	=79	=79	=79
4.G/	2C\	2ee/	4.e\	.	4.C/	.	.	re-	4.G/	.	.	re-	4.e/	.	.	re-	4.ee\	.	re-	re-
8A/	.	.	8f#\	.	8C/	.	.	-sur-	8A/	.	.	-sur-	8f#/	.	.	-sur-	8ee\	.	-su-	-sur-
4B/	4BB\	4dd/	4g\	.	8BB/	.	.	-re-	8B/	.	.	-re-	8g/	.	.	-re-	8dd\	.	-re-	-re-
.	.	.	.	.	8BB/	.	.	-cti-	8B/	.	.	-cti-	8g/	.	.	-cti-	8dd\	.	-cti-	-cti-
*v	*v	*	*	*	*	*	*	*	*	*	*	*	*	*	*	*	*	*	*	*
=80	=80	=80	=80	=80	=80	=80	=80	=80	=80	=80	=80	=80	=80	=80	=80	=80	=80	=80	=80
2C/	4.dd/	2g 2e\	.	4.C/	.	.	-o-	4.e\	.	.	-o-	4.g/	.	.	-o-	4.dd\	.	-o-	-o-
.	8cc/L	.	.	8C/	.	.	-nem	8e\	.	.	-nem	8g/	.	.	-nem	8cc\	.	-nem	-nem
4D/	8b/	8gL 8d\	.	8D/	.	.	mor-	8d\	.	.	mor-	8g/	.	.	mor-	8b\	.	mor-	mor-
.	8a/J	8f#J 8c\	.	8D/	.	.	-tu-	8c\	.	.	-tu-	8f#/	.	.	-tu-	8b\	.	-tu-	-tu-
*	*v	*v	*	*	*	*	*	*	*	*	*	*	*	*	*	*	*	*	*
=81	=81	=81	=81	=81	=81	=81	=81	=81	=81	=81	=81	=81	=81	=81	=81	=81	=81	=81
2G\	2g 2B/	.	4G\	.	.	-o-	4B\	.	.	-o-	4g/	.	.	-o-	4g/	.	-o-	-o-
.	.	.	4G\	.	.	-rum.	4B\	.	.	-rum.	4g/	.	.	-rum.	4g/	.	-rum	-rum.
!	!	!	!	!	!	!	!	!	!	!	!	!	!	!	!LO:SIC:o=8g/L:v	!	!	!
4B 4G\	8g/L	.	4G\	.	.	Et	4B\	.	.	Et	4g/	.	.	Et	(8g/L	.	et	Et
!	!	!	!	!	!	!	!	!	!	!	!	!	!	!	!LO:SIC:o=8b/J:v	!	!	!
.	8b/J	.	.	.	.	.	.	.	.	.	.	.	.	.	8b/J)	.	.	.
=82	=82	=82	=82	=82	=82	=82	=82	=82	=82	=82	=82	=82	=82	=82	=82	=82	=82	=82
2.D/	4.a 4.f#/	.	2D/	.	.	vi-	(4.A/	.	.	vi-	(4.f#/	.	.	vi-	2dd\	.	vi-	vi-
.	16bLL 16g/	.	.	.	.	.	16B/LL	.	.	.	16g/LL	.	.	.	.	.	.	.
.	16aJJ 16f#/	.	.	.	.	.	16A/JJ)	.	.	.	16f#/JJ)	.	.	.	.	.	.	.
.	8gL 8e/	.	8D/	.	.	-tam	8G/	.	.	-tam	8e/	.	.	-tam	8dd\	.	-tam	-tam
.	8aJ 8f#/	.	8D/	.	.	ven-	8A/	.	.	ven-	8f#/	.	.	ven-	8dd\	.	ven-	ven-
=83	=83	=83	=83	=83	=83	=83	=83	=83	=83	=83	=83	=83	=83	=83	=83	=83	=83	=83
!	!	!	!	!	!	!	!	!	!	!	!	!	!	!	!LO:SIC:o=8dd\L:v	!	!	!
4GG/	4b 4g/	.	4G\	.	.	-tu-	4B\	.	.	-tu-	4g/	.	tu-	-tu-	(8dd\L	.	-tu-	-tu-
.	.	.	.	.	.	.	.	.	.	.	.	.	.	.	8ee\	.	.	.
4G\	4b 4g/	.	4G\	.	.	-ri	4B\	.	.	-ri	4g/	.	-ri	-ri	8dd\	.	.	.
!	!	!	!	!	!	!	!	!	!	!	!	!	!	!	!LO:SIC:o=8gg\J:v	!	!	!
.	.	.	.	.	.	.	.	.	.	.	.	.	.	.	8gg\J)	.	.	.
!	!	!	!	!	!	!	!	!	!	!	!	!	!	!	!LO:SIC:o=8gg\L:v	!	!	!
4r	4r	.	4r	.	.	.	4r	.	.	.	4r	.	.	.	(8gg\L	.	-ri	-ri
!	!	!	!	!	!	!	!	!	!	!	!	!	!	!	!LO:SIC:o=8ee\J:v	!	!	!
.	.	.	.	.	.	.	.	.	.	.	.	.	.	.	8ee\J)	.	.	.
=84	=84	=84	=84	=84	=84	=84	=84	=84	=84	=84	=84	=84	=84	=84	=84	=84	=84	=84
2.D/	4.a 4.f#/	.	2D\	.	.	sae-	(4.A/	.	.	sae-	(4.f#/	.	se-	sae-	2dd\	.	se-	sae-
.	16bLL 16g/	.	.	.	.	.	16B/LL	.	.	.	16g/LL	.	.	.	.	.	.	.
.	16aJJ 16f#/	.	.	.	.	.	16A/JJ)	.	.	.	16f#/JJ)	.	.	.	.	.	.	.
!	!	!	!	!	!	!	!LO:SIC:o=8G/L:v	!	!	!	!LO:SIC:o=8e/L:v	!	!	!	!	!	!	!
.	8gL 8e/	.	4D\	.	.	-cu-	(8G/L	.	.	-cu-	(8e/L	.	-cu-	-cu-	4dd\	.	-cu-	-cu-
!	!	!	!	!	!	!	!LO:SIC:o=8A/J:v	!	!	!	!LO:SIC:o=8f#/J:v	!	!	!	!	!	!	!
.	8aJ 8f#/	.	.	.	.	.	8A/J)	.	.	.	8f#/J)	.	.	.	.	.	.	.
=85	=85	=85	=85	=85	=85	=85	=85	=85	=85	=85	=85	=85	=85	=85	=85	=85	=85	=85
!	!	!	!	!	!	!	!	!	!	!	!	!	!	!	!LO:SIC:o=8dd\L:v	!	!	!
4GG/	4b 4g/	.	4G\	.	.	-li.	4B\	.	.	-li.	4g/	.	-li	-li.	(8dd\L	.	-li	-li.
!	!	!	!	!	!	!	!	!	!	!	!	!	!	!	!LO:SIC:o=8cc#X\J:v	!	!	!
.	.	.	.	.	.	.	.	.	.	.	.	.	.	.	8cc#X\J)	.	.	.
!	!	!	!	!	!	!	!	!	!	!	!	!	!	!	!LO:SIC:o=8ee\L:v	!	!	!
4r	4r	.	4r	.	.	.	4r	.	.	.	4r	.	.	.	(8ee\L	.	A-	A-
.	.	.	.	.	.	.	.	.	.	.	.	.	.	.	8dd\	.	.	.
4r	4r	.	4r	.	.	.	4r	.	.	.	4r	.	.	.	8b\	.	.	.
.	.	.	.	.	.	.	.	.	.	.	.	.	.	.	8g\J	.	.	.
=86	=86	=86	=86	=86	=86	=86	=86	=86	=86	=86	=86	=86	=86	=86	=86	=86	=86	=86
*^	*^	*	*	*	*	*	*	*	*	*	*	*	*	*	*	*	*	*
!	!	!	!	!	!	!	!	!	!	!	!	!	!	!	!	!	!LO:SIC:o=(4a\:v	!	!	!
(2.c/	2C\	4a/	2e\	.	(2C/	.	.	A-	2.c\	.	.	A-	(2e/	.	A-	A-	4a\	.	.	.
.	.	4cc/	.	.	.	.	.	.	.	.	.	.	.	.	.	.	4ccn\	.	.	.
.	4D\	8b/L	4f#\	.	4D/)	.	.	.	.	.	.	.	4f#/)	.	.	.	8b\L	.	.	.
.	.	8a/J	.	.	.	.	.	.	.	.	.	.	.	.	.	.	8a\J)	.	.	.
*	*	*v	*v	*	*	*	*	*	*	*	*	*	*	*	*	*	*	*	*	*
=87	=87	=87	=87	=87	=87	=87	=87	=87	=87	=87	=87	=87	=87	=87	=87	=87	=87	=87	=87
4B/)	4G\	4g/	.	4G\	.	.	-men.	4B\	.	.	-men.	4g/	.	-men	-men.	4g/	.	-men	-men.
4r	2ryy	4r	.	4r	.	.	.	4r	.	.	.	4r	.	.	.	4r	.	.	.
4r	.	4r	.	4r	.	.	.	4r	.	.	.	4r	.	.	.	4r	.	.	.
*v	*v	*	*	*	*	*	*	*	*	*	*	*	*	*	*	*	*	*	*
!!LO:PB:g=original
=88	=88	=88	=88	=88	=88	=88	=88	=88	=88	=88	=88	=88	=88	=88	=88	=88	=88	=88
2.C/	2.g 2.e 2.c/	.	2.C/	.	.	A-	2.c\	.	A-	A-	2.e/	.	.	A-	2.g/	.	A-	A-
=89	=89	=89	=89	=89	=89	=89	=89	=89	=89	=89	=89	=89	=89	=89	=89	=89	=89	=89
4GG/	4g 4d 4B/	.	4GG/	.	.	-men.	4B\	.	-men	-men.	4d/	.	.	-men.	4g/	.	-men	-men.
2r	4r	.	4r	.	.	.	4r	.	.	.	4r	.	.	.	4r	.	.	.
.	4r	.	4r	.	.	.	4r	.	.	.	4r	.	.	.	4r	.	.	.
==	==	==	==	==	==	==	==	==	==	==	==	==	==	==	==	==	==	==
*-	*-	*-	*-	*-	*-	*-	*-	*-	*-	*-	*-	*-	*-	*-	*-	*-	*-	*-
!!!system-decoration: [(s1,s2,s3,s4)]{(s5,s6)}
!!!RDF**kern: > = above
!!!RDF**kern: < = below
!!!filter-modern: tie -s | humtr -p | sic -sq | shed -e "s/LO:DY:(a|b|rj)/LO:dy:$1/L" | shed -e "s/TX(.*):t=P:/tx$1:t=P:/LG" | modori -m | autostem -r | shed -e "s/yy//" | shed -k -e "s/\(y([^y])/($1/" | shed -e "s/-//B" | shed -e "s/^(\d+[\/\\]right)/$1yy/I; s/^(\d+[\/\\]left)/$1yy/I" | shed -e "s/^(X?)rep$/$1REP/I" | shed -k -e "s/[<>]//g" | shed -e "s/^custos:/Xcustos:/I" | shed -k -e "s/:TUP:/:tup:/L" | shed -k -e "s/r[a-gA-G]+/r/D" | rid -lid
!!!ENC: Anastazja Marusiak
!!!END: 2021-05-15
!!!EED: Marta Lawrence
!!!EEV: 2021-05-26
!!!EED-modern: Antoni Szymański
!!!END-modern: 2022-07-09
